public/static/icons/ic_plan_free.svg

<svg xmlns="http://www.w3.org/2000/svg" xmlns:xlink="http://www.w3.org/1999/xlink" width="80" height="80" viewBox="0 0 80 80">
  <defs>
    <rect id="ic_plan_free-a" width="80" height="80" x="0" y="0"/>
  </defs>
  <g fill="none" fill-rule="evenodd">
    <mask id="ic_plan_free-b" fill="#fff">
      <use xlink:href="#ic_plan_free-a"/>
    </mask>
    <g mask="url(#ic_plan_free-b)">
      <g transform="translate(9.167 20)">
        <rect width="8.333" height="7.5" x="53.333" y="17.5" fill="#007B55"/>
        <path fill="#005249" d="M0.935161949,20.4888414 L25.96332,8.02878006 C27.3880624,7.31948384 29.0629899,7.32399043 30.4839103,8.04094325 L60.7395623,23.3070168 C61.5703446,23.7262041 61.904693,24.7408644 61.4863504,25.573324 C61.326648,25.8911156 61.0707914,26.1501987 60.7553368,26.313556 L35.4171622,39.4348652 C33.9425662,40.198481 32.1877226,40.1876649 30.7226132,39.4059301 L0.892950307,23.48979 C0.0719286025,23.0517194 -0.239230189,22.0296797 0.197957694,21.2070004 C0.362979937,20.8964695 0.620728863,20.6453793 0.935161949,20.4888414 Z"/>
        <path fill="#007B55" d="M32.5,34.267591 L32.5,38.4608804 C32.5,39.0873403 31.992154,39.5951863 31.3656941,39.5951863 C31.217184,39.5951863 31.0704896,39.566027 30.9338239,39.5097553 L30.8333333,39.4625 L30.833159,31.9117663 C31.8320172,32.2642667 32.5,33.2083582 32.5,34.267591 Z M0.833333333,15.9616667 L30.8333333,31.9117663 L30.8333333,39.4625 L0.833158981,23.5100997 L0.8325,23.4908333 L0.718456996,23.4241744 C0.273076963,23.1364723 0,22.6406316 0,22.1044113 L0,14.1666667 L0.833333333,15.9616667 Z"/>
        <path fill="#00AB55" fill-rule="nonzero" d="M0.935161949,12.9888414 L25.96332,0.528780062 C27.3880624,-0.180516161 29.0629899,-0.176009568 30.4839103,0.540943251 L60.7395623,15.8070168 C61.5703446,16.2262041 61.904693,17.2408644 61.4863504,18.073324 C61.326648,18.3911156 61.0707914,18.6501987 60.7553368,18.813556 L35.4171622,31.9348652 C33.9425662,32.698481 32.1877226,32.6876649 30.7226132,31.9059301 L0.892950307,15.98979 C0.0719286025,15.5517194 -0.239230189,14.5296797 0.197957694,13.7070004 C0.362979937,13.3964695 0.620728863,13.1453793 0.935161949,12.9888414 Z"/>
      </g>
    </g>
  </g>
</svg>

<svg height="80" viewBox="0 0 80 80" width="80" xmlns="http://www.w3.org/2000/svg" xmlns:xlink="http://www.w3.org/1999/xlink"><mask id="a" fill="#fff"><path d="m0 0h80v80h-80z" fill="#fff" fill-rule="evenodd"/></mask><g fill="none" fill-rule="evenodd" mask="url(#a)"><g transform="translate(9.167 20)"><path d="m53.333 17.5h8.333v7.5h-8.333z" fill="#007b55"/><path d="m.93516195 20.4888414 25.02815805-12.46006134c1.4247424-.70929622 3.0996699-.70478963 4.5205903.01216319l30.255652 15.26607355c.8307823.4191873 1.1651307 1.4338476.7467881 2.2663072-.1597024.3177916-.415559.5768747-.7310136.740232l-25.3381746 13.1213092c-1.474596.7636158-3.2294396.7527997-4.694549-.0289351l-29.82966289-15.9161401c-.82102171-.4380706-1.1321805-1.4601103-.69499262-2.2827896.16502225-.3105309.42277117-.5616211.73720426-.718159z" fill="#005249"/><path d="m32.5 34.267591v4.1932894c0 .6264599-.507846 1.1343059-1.1343059 1.1343059-.1485101 0-.2952045-.0291593-.4318702-.085431l-.1004906-.0472553-.0001743-7.5507337c.9988582.3525004 1.666841 1.2965919 1.666841 2.3558247zm-31.66666667-18.3059243 29.99999997 15.9500996v7.5507337l-30.00017432-15.9524003-.00065898-.0192664-.114043-.0666589c-.44538004-.2877021-.718457-.7835428-.718457-1.3197631v-7.9377446z" fill="#007b55"/><path d="m.93516195 12.9888414 25.02815805-12.46006134c1.4247424-.70929622 3.0996699-.70478963 4.5205903.01216319l30.255652 15.26607355c.8307823.4191873 1.1651307 1.4338476.7467881 2.2663072-.1597024.3177916-.415559.5768747-.7310136.740232l-25.3381746 13.1213092c-1.474596.7636158-3.2294396.7527997-4.694549-.0289351l-29.82966289-15.9161401c-.82102171-.4380706-1.1321805-1.4601103-.69499262-2.2827896.16502225-.3105309.42277117-.5616211.73720426-.718159z" fill="#00ab55" fill-rule="nonzero"/></g></g></svg>
